X: 23
T: I Heard the Bells on Christmas Day
P: piffero primo c0058
O: J Baptiste Calkin
%R: march
F: http://ancients.sudburymuster.org/mus/col/pdf/carolsF.pdf
Z: 2020 John Chambers <jc:trillian.mit.edu>
M: 4/4
L: 1/4
K: D
% - - - - - - - - - -
D |\
F>^E FF | G>F G^G | Ad cB | B>A AA |\
A>G  FG | F>E DE  | FG AB | C>E D :|
%% - - - - - - - - - -


